dist/images/src/logo-tiqets.svg

<svg width="102" height="39" viewBox="0 0 102 39" fill="none" xmlns="http://www.w3.org/2000/svg">
<path fill-rule="evenodd" clip-rule="evenodd" d="M28.038 6C29.646 6 31 4.696 31 2.979C31.0012 2.58889 30.9255 2.20237 30.7773 1.84151C30.629 1.48066 30.4112 1.15254 30.1361 0.8759C29.8611 0.599261 29.5342 0.379521 29.1742 0.229232C28.8142 0.0789427 28.4281 0.00104901 28.038 0C26.383 0 25 1.306 25 2.979C25 4.696 26.383 6 28.038 6ZM29.498 19.614V10H25V19.614C25 24.797 29.035 29 34 29V24.316C31.519 24.316 29.497 22.204 29.497 19.614H29.498ZM50.388 11.416C49.005 10.583 47.46 10 45.672 10H45.626C43.059 10 40.642 11.028 38.828 12.768C37.9345 13.6299 37.2236 14.6629 36.7377 15.8054C36.2519 16.9479 36.001 18.1765 36 19.418V19.791C36 24.948 40.277 29.131 45.61 29.131C47.2884 29.1314 48.9369 28.6873 50.388 27.844V39H55V10.268H50.388V11.416ZM97.649 18.094L94.715 17.158C93.696 16.811 92.88 16.262 92.925 15.528C93.011 14.151 94.155 13.795 95.293 13.868C96.153 13.923 97.163 14.338 97.49 15.244L101.427 13.301C100.321 11.16 97.876 10.173 95.421 10.016C91.861 9.788 88.682 12.081 88.501 14.998C88.369 17.138 88.655 19.309 93.215 20.885L95.629 21.675C96.901 22.067 97.568 22.581 97.468 23.512C97.403 24.565 96.325 25.242 95.021 25.199C93.49 25.165 92.23 24.234 91.933 23.129L88 25.06C89.068 27.407 91.68 28.807 94.326 28.977C98.034 29.215 101.76 27.54 101.989 23.847C102.079 22.397 101.725 19.447 97.649 18.093V18.094ZM10.953 1H9.222C6.757 1 4.444 2.072 2.696 3.853C0.96 5.611 0 7.921 0 10.563H4.61C4.61 9.196 5.096 8.16 5.974 7.269C6.39706 6.83742 6.90265 6.49539 7.46065 6.26329C8.01865 6.03119 8.61766 5.91376 9.222 5.918H10.878V19.634C10.878 24.806 14.914 29 20.206 29V24.326C17.426 24.326 15.362 22.218 15.362 19.634V5.918H22V1H10.953ZM64.981 10C60.305 10 56 13.722 56 19.43C56 25.467 60.417 29 65.427 29C69.112 29 71.72 27.264 73.051 24.932L69.149 23.076C68.445 24.151 67.279 24.85 65.464 24.85C63.014 24.85 60.974 22.986 60.862 20.767H73.926C73.926 20.767 74 19.978 74 19.287C74 13.543 70.623 10 64.981 10ZM78.431 19.591C78.431 24.228 82.254 28 86.957 28V23.524C84.764 23.524 82.967 21.774 82.967 19.591H82.963V13.766H87V9.913H82.963V4H78.43V9.913H75V13.766H78.43V19.591H78.431ZM50.465 19.791C50.465 21.035 49.903 22.211 48.988 23.081C48.088 23.976 46.988 24.459 45.7 24.459C43.034 24.459 40.98 22.369 40.98 19.791V19.418C40.98 18.179 41.417 17.002 42.329 16.126C43.2234 15.2438 44.4267 14.7451 45.683 14.736C48.333 14.746 50.446 16.782 50.446 19.369L50.466 19.791H50.465ZM60.974 17.482C61.084 15.707 62.495 13.955 65.056 13.955C67.876 13.955 69.064 15.707 69.138 17.482H60.974Z" fill="#B2B2B2"/>
</svg>

<svg width="102" height="39" fill="none" xmlns="http://www.w3.org/2000/svg"><path fill-rule="evenodd" clip-rule="evenodd" d="M28.038 6C29.646 6 31 4.696 31 2.979A2.97 2.97 0 0028.038 0C26.383 0 25 1.306 25 2.979 25 4.696 26.383 6 28.038 6zm1.46 13.614V10H25v9.614C25 24.797 29.035 29 34 29v-4.684c-2.481 0-4.503-2.112-4.503-4.702h.001zm20.89-8.198C49.005 10.583 47.46 10 45.672 10h-.046c-2.567 0-4.984 1.028-6.798 2.768A9.25 9.25 0 0036 19.418v.373c0 5.157 4.277 9.34 9.61 9.34a9.505 9.505 0 004.778-1.287V39H55V10.268h-4.612v1.148zm47.261 6.678l-2.934-.936c-1.019-.347-1.835-.896-1.79-1.63.086-1.377 1.23-1.733 2.368-1.66.86.055 1.87.47 2.197 1.376l3.937-1.943c-1.106-2.141-3.551-3.128-6.006-3.285-3.56-.228-6.739 2.065-6.92 4.982-.132 2.14.154 4.311 4.714 5.887l2.414.79c1.272.392 1.939.906 1.839 1.837-.065 1.053-1.143 1.73-2.447 1.687-1.531-.034-2.791-.965-3.088-2.07L88 25.06c1.068 2.347 3.68 3.747 6.326 3.917 3.708.238 7.434-1.437 7.663-5.13.09-1.45-.264-4.4-4.34-5.754v.001zM10.953 1H9.222C6.757 1 4.444 2.072 2.696 3.853.96 5.611 0 7.921 0 10.563h4.61c0-1.367.486-2.403 1.364-3.294a4.504 4.504 0 013.248-1.351h1.656v13.716c0 5.172 4.036 9.366 9.328 9.366v-4.674c-2.78 0-4.844-2.108-4.844-4.692V5.918H22V1H10.953zm54.028 9C60.305 10 56 13.722 56 19.43c0 6.037 4.417 9.57 9.427 9.57 3.685 0 6.293-1.736 7.624-4.068l-3.902-1.856c-.704 1.075-1.87 1.774-3.685 1.774-2.45 0-4.49-1.864-4.602-4.083h13.064s.074-.789.074-1.48C74 13.543 70.623 10 64.981 10zm13.45 9.591c0 4.637 3.823 8.409 8.526 8.409v-4.476c-2.193 0-3.99-1.75-3.99-3.933h-.004v-5.825H87V9.913h-4.037V4H78.43v5.913H75v3.853h3.43v5.825h.001zm-27.966.2c0 1.244-.562 2.42-1.477 3.29-.9.895-2 1.378-3.288 1.378-2.666 0-4.72-2.09-4.72-4.668v-.373c0-1.239.437-2.416 1.349-3.292a4.826 4.826 0 013.354-1.39c2.65.01 4.763 2.046 4.763 4.633l.02.422h-.001zm10.509-2.309c.11-1.775 1.521-3.527 4.082-3.527 2.82 0 4.008 1.752 4.082 3.527h-8.164z" fill="#B2B2B2"/></svg>
